X:1
T:Title
%%score ( 1 2 ) { 3 | 4 }
L:1/8
Q:1/4=95
M:4/4
K:Bb
V:1 treble nm="Grand Piano, Soprano"
V:2 treble 
V:3 bass nm="Choir Pad, Christ Is Ready to Welcome"
V:4 bass 
V:1
 [Fd][Ec] [DB]2 [DF]>[DF] [EG][DF] | [DB][Fd] [Gc]2 [EG]2 [EG]2 | [EG][EB] [EA]2 [EA][EA] [Fe]2 | %3
w: By~Samuel~William~Beazley * * * * * *|||
 [EA][EG] [DF]6 | [Fd][Ec] [DB]2 [DF]>[DF] [EG][DF] | [DB][Fd] [Gc]2 [EG]2 [EG]2 | %6
w: |||
 [EG][EB] [EA]2 [EA][EA] [Fe]2 | [Fd][Ec] [DB]6 | [DF][DF] [Fd]2 [Fd]>[Fd] [Fd][DF] | %9
w: |||
 [DF][DB][EB][EA] [EA][EG][EA]F | z2 e6 | GA z2 D2 D2 | [DF][DF] [Fd]2 [Fd]>[Fd] [Fd][DF] | %13
w: ||||
 [DF][FB][GB][FA] [EG][GB][Ge]e | z2 d6 | z2 B6 | z8 |] %17
w: ||||
V:2
 x8 | x8 | x8 | x8 | x8 | x8 | x8 | x8 | x8 | x8 | Ac z2 F2 F2 | z2 F6 | x8 | x8 | dc z2 F2 F2 | %15
 [Fc][Fc] F2 G2 F2- | F6 z2 |] %17
V:3
 B,B, B,2 B,>B, B,B, | B,B, B,2 B,2 B,2 | B,G, F,2[K:treble] CC A,2 | CA,[K:bass] B,6 | %4
 B,B, B,2 B,>B, B,B, | B,B, B,2 B,2 B,2 | B,G, F,2 CC A,2 | A,A, B,6 | B,B, B,2 B,>B, B,B, | %9
 B,B,[K:treble]CC CC .C2 | z4[K:bass] A,2 A,2 | z4 B,2 B,2 | B,B, B,2 B,>B, B,B, | %13
 B,B,B,B, B,B, .B,2 | z4[K:treble] B,2 B,2 | EE D2 E2 D2- | D6 z2 |] %17
V:4
 B,,B,, B,,2 B,,>B,, B,,B,, | B,,B,, E,2 E,2 E,2 | E,E, z2 F,F, F,2 | F,F, B,,6 | %4
 B,,B,, B,,2 B,,>B,, B,,B,, | B,,B,, E,2 E,2 E,2 | E,E, z2 F,F, F,2 | F,F, B,,6 | %8
 B,,B,, B,,2 B,,>B,, B,,B,, | B,,B,,F,F, F,F, .F,2 | z4 F,2 F,2 | z4 B,,2 B,,2 | %12
 B,,B,, B,,2 B,,>B,, B,,B,, | B,,D,E,E, E,E, .E,2 | z4 F,2 F,2 | F,F, B,,6 | z8 |] %17

